contributed-vectors/iptv_pro.svg

<svg xmlns="http://www.w3.org/2000/svg" viewBox="0 0 192 192"><rect width="176" height="127" x="8" y="32.5" fill="#9abeff" rx="10"/><path fill="#fff" d="M49.65 80.4h6.86v31.2h-6.86ZM85.42 89.81A9 9 0 0 1 76.11 99h-6.39v12.6h-6.87V80.4h13.26a9.29 9.29 0 0 1 9.31 9.41Zm-6.55 0A3.55 3.55 0 0 0 75 86.43h-5.3v6.87H75c2.2 0 3.87-1.36 3.87-3.44ZM110 86.49h-7.85v25.11h-6.8V86.49h-7.9V80.4H110ZM142.35 80.4l-11.23 31.2h-7.69L112.2 80.4h7.64l7.44 22.31 7.43-22.31Z"/></svg>

<svg xmlns="http://www.w3.org/2000/svg" viewBox="0 0 192 192"><title>IPTV Pro</title><rect x="8" y="32.5" width="176" height="127" rx="10" fill="#9abeff"/><path d="M49.65,80.4h6.86v31.2H49.65Z" fill="#fff"/><path d="M85.42,89.81A9,9,0,0,1,76.11,99H69.72V111.6H62.85V80.4H76.11A9.29,9.29,0,0,1,85.42,89.81Zm-6.55,0A3.55,3.55,0,0,0,75,86.43h-5.3V93.3H75C77.2,93.3,78.87,91.94,78.87,89.86Z" fill="#fff"/><path d="M110,86.49h-7.85V111.6H95.35V86.49h-7.9V80.4H110Z" fill="#fff"/><path d="M142.35,80.4l-11.23,31.2h-7.69L112.2,80.4h7.64l7.44,22.31,7.43-22.31Z" fill="#fff"/></svg>
